packages/elements/bolt-icon/src/svgs/platform.svg

<svg enable-background="new 0 0 32 32" viewBox="0 0 32 32" xmlns="http://www.w3.org/2000/svg"><path clip-rule="evenodd" d="m16 2-16 8 16 8 16-8zm-12 7.8 12-5.8 12 5.8-12 6.2zm23.5 6.2-11.5 6-11.5-6h-4.5l16 8 16-8zm0 6-11.5 6-11.5-6h-4.5l16 8 16-8z" fill="#151619" fill-rule="evenodd"/></svg>

<?xml version="1.0" encoding="utf-8"?>
<!-- Generator: Adobe Illustrator 25.2.0, SVG Export Plug-In . SVG Version: 6.00 Build 0)  -->
<svg version="1.1" id="Layer_1" xmlns="http://www.w3.org/2000/svg" xmlns:xlink="http://www.w3.org/1999/xlink" x="0px" y="0px"
	 viewBox="0 0 32 32" style="enable-background:new 0 0 32 32;" xml:space="preserve">
<style type="text/css">
	.st0{fill-rule:evenodd;clip-rule:evenodd;fill:#151619;}
</style>
<path class="st0" d="M16,2L0,10l16,8l16-8L16,2z M4,9.8L16,4l12,5.8L16,16L4,9.8z M27.5,16L16,22L4.5,16H0l16,8l16-8H27.5z M27.5,22
	L16,28L4.5,22H0l16,8l16-8H27.5z"/>
</svg>
